Sources/FrostedUI/Resources/Icons.xcassets/converge16.imageset/converge-16.svg

<svg width="16" height="16" viewBox="0 0 16 16" fill="none" xmlns="http://www.w3.org/2000/svg" data-fui-icon="true">
  <path
    d="M2.87463 1.00049C3.99419 1.00049 4.94193 1.73601 5.26038 2.75049H5.78284C6.8158 2.75049 7.75582 3.3467 8.1969 4.28076L9.59924 7.25049H12.8805L11.8297 6.14111C11.5453 5.84054 11.5588 5.36538 11.859 5.08057C12.1597 4.79601 12.6348 4.80927 12.9196 5.10986L15.1696 7.48486C15.4431 7.77404 15.4432 8.22696 15.1696 8.51611L12.9196 10.8911C12.6348 11.1913 12.1596 11.2048 11.859 10.9204C11.5586 10.6358 11.5456 10.1606 11.8297 9.85986L12.8805 8.75049H9.59924L8.1969 11.7202C7.75571 12.654 6.8156 13.2505 5.78284 13.2505H5.2594C4.94059 14.2644 3.99376 15.0005 2.87463 15.0005C1.49425 15.0003 0.374898 13.8809 0.374634 12.5005C0.374634 11.1199 1.49409 10.0007 2.87463 10.0005C3.99419 10.0005 4.94193 10.736 5.26038 11.7505H5.78284C6.23521 11.7505 6.648 11.4894 6.84143 11.0806L8.29553 8.00049L6.84143 4.92041C6.64811 4.51122 6.23541 4.25049 5.78284 4.25049H5.2594C4.94059 5.26437 3.99376 6.00049 2.87463 6.00049C1.49425 6.00029 0.374898 4.88085 0.374634 3.50049C0.374634 2.1199 1.49409 1.00069 2.87463 1.00049ZM2.87463 11.5005C2.32252 11.5007 1.87463 11.9483 1.87463 12.5005C1.8749 13.0524 2.32268 13.5003 2.87463 13.5005C3.42676 13.5005 3.87437 13.0525 3.87463 12.5005C3.87463 11.9482 3.42692 11.5005 2.87463 11.5005ZM2.87463 2.50049C2.32252 2.50069 1.87463 2.94833 1.87463 3.50049C1.8749 4.05243 2.32268 4.50029 2.87463 4.50049C3.42676 4.50049 3.87437 4.05255 3.87463 3.50049C3.87463 2.9482 3.42692 2.50049 2.87463 2.50049Z"
    fill="currentColor"
  />
</svg>

<svg xmlns="http://www.w3.org/2000/svg" width="16" height="16" fill="none" data-fui-icon="true" viewBox="0 0 16 16"><path fill="currentColor" d="M2.875 1A2.5 2.5 0 0 1 5.26 2.75h.523a2.67 2.67 0 0 1 2.414 1.53l1.402 2.97h3.281l-1.05-1.109a.751.751 0 0 1 1.09-1.031l2.25 2.375a.75.75 0 0 1 0 1.031l-2.25 2.375a.751.751 0 0 1-1.09-1.031l1.05-1.11H9.6l-1.403 2.97a2.67 2.67 0 0 1-2.414 1.53h-.524a2.501 2.501 0 0 1-4.884-.75 2.5 2.5 0 0 1 4.885-.75h.523c.452 0 .865-.26 1.058-.67L8.296 8 6.84 4.92a1.17 1.17 0 0 0-1.058-.67h-.524A2.501 2.501 0 0 1 .375 3.5a2.5 2.5 0 0 1 2.5-2.5m0 10.5a1 1 0 1 0 0 2.001 1 1 0 0 0 0-2m0-9a1 1 0 1 0 0 2.001 1 1 0 0 0 0-2"/></svg>
